public/svgs/twin/anatomy-m0-4.svg

<svg width="100%" height="100%" viewBox="0 0 32 32" fill="none" xmlns="http://www.w3.org/2000/svg">
<path d="M23.672 17.353C22.5089 15.3069 21.2235 13.5665 19.7692 12.6453C19.8906 12.1588 20.0358 11.6214 20.254 11.1095C20.0358 9.77914 19.1146 9.49812 18.4601 9.44633C19.9144 8.29511 21.2719 7.9623 21.2719 7.9623C21.4417 6.3764 20.0358 6.65741 20.0358 6.65741C18.6299 6.99021 17.5143 7.60488 16.6424 8.3469C18.8964 5.83899 21.5869 5.1997 21.5869 5.1997C21.8297 3.17826 20.012 3.53568 20.012 3.53568C14.3153 4.89237 12.4246 9.9328 11.9161 11.6987C11.5449 11.4982 11.1434 11.3597 10.7275 11.2886V8.96156C10.7275 8.96156 11.8677 6.71005 14.0487 5.09782C14.8247 3.12817 12.7642 2.33437 12.7642 2.33437L10.7283 4.20214V1.74517C9.53976 0.389338 8.35288 1.74517 8.35288 1.74517V11.8778C7.62529 12.4144 7.14052 13.2591 6.80178 14.283C5.61319 17.9422 6.24399 21.6268 8.64408 24.543C8.64408 24.543 9.54061 28.2531 15.3579 29.8653C21.1989 31.4767 23.0658 30.8629 23.9624 29.8653C24.8597 28.8669 26.1926 21.8305 23.672 17.353ZM20.181 6.88834C20.0842 7.50215 20.8355 7.9623 20.8355 7.9623C19.8422 7.78402 20.1326 6.96474 20.1818 6.88834H20.181ZM20.2056 3.84302C20.0842 4.6105 21.0291 5.1997 21.0291 5.1997C19.7692 4.96878 20.1572 3.92028 20.2056 3.84302ZM12.7634 2.61538C12.1818 3.84302 13.6124 5.0715 13.6124 5.0715C11.6724 3.53653 12.7634 2.61538 12.7634 2.61538ZM8.44881 2.0525C9.24856 2.58906 10.6307 2.23079 10.6307 2.23079C9.66032 3.12647 8.44881 2.0525 8.44881 2.0525ZM17.1017 11.8778C16.8351 11.9033 16.5685 11.9288 16.3019 12.0052C16.6462 11.3816 17.0699 10.8054 17.5627 10.2911L17.1017 11.8778ZM17.9023 9.7282C18.0228 11.084 19.8651 11.315 19.8651 11.315C17.4659 11.1358 17.9023 9.7282 17.9023 9.7282Z" fill="current"/>
</svg>

<svg xmlns="http://www.w3.org/2000/svg" fill="none" viewBox="0 0 32 32"><path fill="current" d="M23.672 17.353c-1.163-2.046-2.448-3.787-3.903-4.708.122-.486.267-1.024.485-1.535-.218-1.33-1.14-1.612-1.794-1.664 1.454-1.15 2.812-1.484 2.812-1.484.17-1.586-1.236-1.305-1.236-1.305-1.406.333-2.522.948-3.394 1.69C18.896 5.839 21.587 5.2 21.587 5.2c.243-2.022-1.575-1.664-1.575-1.664-5.697 1.356-7.587 6.397-8.096 8.163a3.9 3.9 0 0 0-1.189-.41V8.962s1.14-2.252 3.322-3.864c.776-1.97-1.285-2.764-1.285-2.764l-2.036 1.868V1.745c-1.188-1.356-2.375 0-2.375 0v10.133c-.728.536-1.212 1.381-1.551 2.405-1.189 3.66-.558 7.344 1.842 10.26 0 0 .897 3.71 6.714 5.322 5.84 1.612 7.708.998 8.604 0 .898-.998 2.23-8.034-.29-12.512M20.181 6.888c-.097.614.654 1.074.654 1.074-.993-.178-.702-.997-.653-1.074zm.025-3.045c-.122.768.823 1.357.823 1.357-1.26-.231-.872-1.28-.823-1.357m-7.443-1.228c-.581 1.228.85 2.457.85 2.457-1.94-1.535-.85-2.457-.85-2.457M8.45 2.053c.8.536 2.182.178 2.182.178-.97.895-2.182-.178-2.182-.178m8.653 9.825a4.4 4.4 0 0 0-.8.127 8.2 8.2 0 0 1 1.26-1.714zm.8-2.15c.12 1.356 1.963 1.587 1.963 1.587-2.4-.18-1.963-1.587-1.963-1.587"/></svg>
